public/assets/img/icons/recruit-value-arrow.svg

<svg width="40" height="35" viewBox="0 0 40 35" fill="none" xmlns="http://www.w3.org/2000/svg">
<path d="M39.5499 26.5381L32.0499 20.2881C31.6774 19.9756 31.1574 19.9131 30.7199 20.1156C30.28 20.3231 30 20.7631 30 21.2481V24.9981H27.9075C26.1725 24.9981 24.5875 24.1181 23.6675 22.6481L15.5725 9.69816C13.735 6.75567 10.565 4.99817 7.09249 4.99817H0V9.99816H7.09249C8.82749 9.99816 10.4125 10.8782 11.3325 12.3482L19.4275 25.2981C21.2675 28.2406 24.4375 29.9981 27.9075 29.9981H30V33.7481C30 34.2331 30.28 34.6731 30.7199 34.8806C30.8874 34.9581 31.07 34.9981 31.2499 34.9981C31.5374 34.9981 31.8224 34.9006 32.0499 34.7081L39.5499 28.4581C39.8374 28.2206 39.9999 27.8681 39.9999 27.4981C39.9999 27.1281 39.8374 26.7756 39.5499 26.5381Z" fill="white"/>
<path d="M39.5496 6.53813L32.0496 0.288141C31.6771 -0.0218585 31.1571 -0.0868586 30.7196 0.118141C30.2796 0.320641 29.9996 0.76314 29.9996 1.24814V4.99813H27.9071C24.4346 4.99813 21.2646 6.75563 19.4271 9.69812L18.9746 10.4231L21.9221 15.1406L23.6671 12.3481C24.5871 10.8781 26.1721 9.99813 27.9071 9.99813H29.9996V13.7481C29.9996 14.2331 30.2796 14.6756 30.7196 14.8806C30.8871 14.9581 31.0696 14.9981 31.2496 14.9981C31.5371 14.9981 31.8221 14.8981 32.0496 14.7081L39.5496 8.45813C39.8371 8.22063 39.9996 7.86813 39.9996 7.49813C39.9996 7.12813 39.8371 6.77563 39.5496 6.53813Z" fill="white"/>
<path d="M13.0775 19.8556L11.335 22.6481C10.415 24.1181 8.82749 24.9981 7.09249 24.9981H0V29.9981H7.09249C10.5625 29.9981 13.7325 28.2406 15.5725 25.2981L16.025 24.5731L13.0775 19.8556Z" fill="white"/>
</svg>

<svg width="40" height="35" fill="none" xmlns="http://www.w3.org/2000/svg"><path d="m39.55 26.538-7.5-6.25a1.252 1.252 0 0 0-1.33-.172c-.44.207-.72.647-.72 1.132v3.75h-2.093c-1.735 0-3.32-.88-4.24-2.35l-8.095-12.95a9.94 9.94 0 0 0-8.48-4.7H0v5h7.092c1.735 0 3.32.88 4.24 2.35l8.095 12.95a9.946 9.946 0 0 0 8.48 4.7H30v3.75a1.252 1.252 0 0 0 1.25 1.25c.287 0 .572-.097.8-.29l7.5-6.25c.287-.237.45-.59.45-.96s-.163-.722-.45-.96z" fill="#fff"/><path d="m39.55 6.538-7.5-6.25a1.252 1.252 0 0 0-2.05.96v3.75h-2.093a9.94 9.94 0 0 0-8.48 4.7l-.452.725 2.947 4.718 1.745-2.793a4.976 4.976 0 0 1 4.24-2.35H30v3.75a1.249 1.249 0 0 0 2.05.96l7.5-6.25c.287-.237.45-.59.45-.96s-.163-.722-.45-.96zM13.078 19.856l-1.743 2.792a4.98 4.98 0 0 1-4.243 2.35H0v5h7.092c3.47 0 6.64-1.757 8.48-4.7l.453-.725-2.947-4.717z" fill="#fff"/></svg>
